Luts/Cool_red_1.C0036.cube
TITLE "Generated by Resolve"
LUT_3D_SIZE 33
0 0 0
0 0 0
0 0 0
0 0 0
0 0 0
0 0 0
0 0 0
0 0 0
0.0226749 0 0
0.0871748 0 0
0.15314 0 0
0.214954 0 0
0.272038 0 0
0.323461 0 0
0.371084 0 0
0.416495 0 0
0.459464 0 0
0.48539 0 0
0.513237 0 0
0.567254 0 0
0.621271 0 0
0.674525 0 0
0.727016 0 0
0.779187 0 0
0.829496 0 0
0.878676 0 0
0.926925 0 0
0.973816 0 0
1 0 0
1 0 0
1 0 0
1 0 0
1 0 0
0 0 0
0 0 0
0 0 0
0 0 0
0 0 0
0 0 0
0 0 0
0 0 0
0 0 0
0.0590372 0 0
0.126757 0 0
0.191791 0 0
0.252461 0 0
0.306767 0 0
0.35639 0 0
0.403006 0 0
0.447242 0 0
0.486442 0 0
0.501274 0 0
0.551247 0 0
0.605127 0 0
0.658824 0 0
0.711467 0 0
0.763516 0 0
0.814298 0 0
0.863661 0 0
0.911788 0 0
0.959213 0 0
1 0 0
1 0 0
1 0 0
1 0 0
1 0 0
0 0 0
0 0 0
0 0 0
0 0 0
0 0 0
0 0 0
0 0 0
0 0 0
0 0 0
0.0292668 0 0
0.0976272 0 0
0.165072 0 0
0.228977 0 0
0.28716 0 0
0.339223 0 0
0.387213 0 0
0.432975 0 0
0.476753 0 0
0.502129 0 0
0.534554 0 0
0.588632 0 0
0.642206 0 0
0.695338 0 0
0.7476 0 0
0.798367 0 0
0.848188 0 0
0.896559 0 0
0.943877 0 0
0.989731 0 0
1 0 0
1 0 0
1 0 0
1 0 0
0 0 0
0 0 0
0 0 0
0 0 0
0 0 0
0 0 0
0 0 0
0 0 0
0 0 0
0 0 0
0.0672313 0 0
0.136431 0 0
0.20264 0 0
0.263783 0 0
0.318898 0 0
0.369055 0 0
0.416175 0 0
0.461265 0 0
0.499184 0 0
0.516381 0 0
0.570703 0 0
0.624338 0 0
0.677394 0 0
0.729946 0 0
0.780728 0 0
0.830411 0 0
0.879164 0 0
0.926619 0 0
0.972305 0 0
1 0 0
1 0 0
1 0 0
1 0 0
0 0 0
0 0 0
0 0 0
0 0 0
0 0 0
0 0 0
0 0 0
0 0 0
0 0 0
0 0 0
0.0308537 0 0
0.108034 0 0
0.176165 0 0
0.239628 0 0
0.297902 0 0
0.350484 0 0
0.399268 0 0
0.446204 0 0
0.490486 0 0
0.512627 0 0
0.554925 0 0
0.608972 0 0
0.662135 0 0
0.714717 0 0
0.766094 0 0
0.815961 0 0
0.864652 0 0
0.912306 0 0
0.958373 0 0
1 0 0
1 0 0
1 0 0
1 0 0
0 0 0
0 0 0
0 0 0
0 0 0
0 0 0
0 0 0
0 0 0
0 0 0
0 0 0
0 0 0
0 0 0
0.047715 0 0
0.137392 0 0
0.212543 0 0
0.274495 0 0
0.330037 0 0
0.380957 0 0
0.429435 0 0
0.47631 0 0
0.509041 0 0
0.539147 0 0
0.593271 0 0
0.646983 0 0
0.699794 0 0
0.751217 0 0
0.801129 0 0
0.850294 0 0
0.898054 0 0
0.943847 0 0
0.989044 0 0
1 0 0
1 0 0
1 0 0
0 0 0
0 0 0
0 0 0
0 0 0
0 0 0
0 0 0
0 0 0
0 0 0
0 0 0
0 0 0
0 0 0
0.00959792 0 0
0.0697185 0 0
0.153521 0 0
0.235752 0 0
0.302983 0 0
0.35993 0 0
0.411048 0 0
0.459495 0 0
0.501015 0 0
0.52343 0 0
0.577508 0 0
0.631067 0 0
0.684001 0 0
0.735897 0 0
0.78587 0 0
0.834852 0 0
0.88278 0 0
0.928664 0 0
0.974243 0 0
1 0 0
1 0 0
1 0 0
0 0 0
0 0 0
0 0 0
0 0 0
0 0 0
0 0 0
0 0 0
0 0 0
0 0 0
0 0 0
0 0 0
0 0 0
0.0438544 0 0
0.10016 0 0
0.167361 0 0
0.249027 0 0
0.320668 0 0
0.382391 0 0
0.438148 0 0
0.487114 0 0
0.513909 0 0
0.56054 0 0
0.614282 0 0
0.667643 0 0
0.719127 0 0
0.769162 0 0
0.818326 0 0
0.86627 0 0
0.912749 0 0
0.957824 0 0
1 0 0
1 0 0
1 0 0
0 0.0173342 0
0 0.0155489 0
0 0.013138 0
0 0.00984207 0
0 0.00608835 0
0 0.00242618 0
0 0 0
0 0 0
0 0 0
0 0 0
0 0 0
0 0.00727855 0
0.0309758 0.00515755 0
0.0783703 0.00190738 0
0.131746 0 0
0.190219 0 0
0.258747 0 0
0.331411 0 0
0.397574 0 0
0.457115 0 0
0.500648 0 0
0.539925 0 0
0.595941 0 0
0.649454 0 0
0.700969 0 0
0.751095 0 0
0.800824 0 0
0.848569 0 0
0.894896 0 0
0.940322 0 0
0.984527 0 0
1 0 0
1 0 0
0 0.0460975 0
0 0.0440681 0
0 0.0412299 0
0 0.0382391 0
0 0.0346532 0
0 0.0310979 0
0 0.0278935 0
0 0.0245975 0
0 0.0217288 0
0 0.0200809 0
0.000106813 0.0209354 0
0.00483711 0.0337072 0
0.0229648 0.0387732 0
0.0652476 0.0363928 0
0.111543 0.0335241 0
0.16286 0.0298161 0
0.217456 0.0250553 0
0.273823 0.0195621 0
0.340291 0.0120546 0
0.407431 0.00421149 0
0.470344 0 0
0.510613 0 0
0.563485 0 0
0.623438 0 0
0.6795 0 0
0.732204 0 0
0.781994 0 0
0.830167 0 0
0.876295 0 0
0.921813 0 0
0.966323 0 0
1 0 0
1 0 0
0 0.0745861 0
0 0.0728313 0
0 0.0701152 0
0 0.0670634 0
0 0.0639658 0
0 0.0609598 0
0 0.0580453 0
0 0.0547494 0
0 0.0516365 0
0 0.0501869 0
0.00898756 0.0489967 0
0.0329595 0.0541543 0
0.030869 0.0680095 0
0.0565194 0.0712139 0
0.0988632 0.0689097 0
0.143771 0.0663005 0
0.191791 0.0631418 0
0.24332 0.0591135 0
0.296544 0.0547646 0
0.350393 0.0497139 0
0.412863 0.043122 0
0.475456 0.0362402 0
0.51838 0.0327459 0
0.57612 0.0266423 0
0.638209 0.0199893 0
0.696544 0.0137484 0
0.752285 0.00799573 0
0.804425 0.0030518 0
0.853635 0 0
0.900999 0 0
0.946029 0 0
0.989792 0 0
1 0 0
0 0.103487 0
0 0.101671 0
0 0.0993057 0
0 0.0967727 0
0 0.0939956 0
0 0.0912947 0
0 0.0888075 0
0 0.0858625 0
0 0.0825666 0
0 0.0807202 0
0.0155489 0.0791943 0
0.0470283 0.0794385 0
0.0619669 0.0897078 0
0.06009 0.102327 0
0.0890211 0.104234 0
0.130587 0.102174 0
0.174334 0.100038 0
0.220508 0.0973526 0
0.26923 0.0939345 0
0.318853 0.0901198 0
0.368673 0.0861219 0
0.419532 0.0818189 0
0.478126 0.076463 0
0.525643 0.0726482 0
0.577676 0.0680552 0
0.641367 0.0613107 0
0.702312 0.0549783 0
0.759899 0.0492561 0
0.813718 0.0444038 0
0.865415 0.0401007 0
0.914946 0.0360571 0
0.96228 0.0325475 0
1 0.0293736 0
0 0.132219 0
0 0.130983 0
0 0.128923 0
0 0.126619 0
0 0.124285 0
0 0.122255 0
0 0.119951 0
0 0.117128 0
0 0.113832 0
0 0.111772 0
0.021622 0.110369 0
0.0543679 0.109194 0
0.0826429 0.112093 0
0.0879683 0.125811 0
0.090135 0.136507 0
0.12076 0.138125 0
0.161563 0.136385 0
0.20412 0.134218 0
0.248707 0.131746 0
0.294469 0.129 0
0.341466 0.125841 0
0.388724 0.122667 0
0.435554 0.11957 0
0.483131 0.116152 0
0.532296 0.112551 0
0.572396 0.110445 0
0.635676 0.104448 0
0.697673 0.0987716 0
0.755978 0.0934768 0
0.812207 0.0884413 0
0.865995 0.0838331 0
0.917586 0.0796521 0
0.967468 0.0758526 0
0 0.161044 0
0 0.159854 0
0 0.158175 0
0 0.156497 0
0 0.154818 0
0 0.152956 0
0 0.150958 0
0 0.148425 0
0 0.145373 0
0 0.143191 0
0.0272221 0.141588 0
0.0609445 0.140063 0
0.093431 0.139574 0
0.115892 0.146792 0
0.114107 0.162203 0
0.120958 0.171099 0
0.151919 0.172366 0
0.192309 0.170626 0
0.233722 0.168688 0
0.276692 0.166522 0
0.320897 0.164401 0
0.365118 0.161959 0
0.409598 0.159396 0
0.454154 0.156786 0
0.497719 0.154421 0
0.539254 0.152453 0
0.569711 0.152407 0
0.62797 0.148058 0
0.686671 0.143389 0
0.745464 0.138552 0
0.802563 0.133883 0
0.85771 0.129503 0
0.911345 0.12549 0
0 0.189517 0
0 0.188754 0
0 0.187549 0
0 0.186221 0
0 0.184848 0
0 0.183444 0
0 0.181903 0
0 0.179889 0
0 0.176944 0
0 0.174456 0
0.0330816 0.1729 0
0.0673533 0.171328 0
0.100618 0.170245 0
0.131319 0.171969 0
0.14667 0.183032 0
0.14136 0.197986 0
0.151904 0.205585 0
0.1832 0.20676 0
0.222934 0.205203 0
0.263874 0.203525 0
0.305409 0.201724 0
0.347189 0.199893 0
0.389212 0.198016 0
0.431449 0.196094 0
0.473014 0.194354 0
0.514427 0.192996 0
0.552575 0.191852 0
0.579644 0.192386 0
0.622522 0.190921 0
0.676692 0.187716 0
0.732067 0.184283 0
0.788769 0.180835 0
0.84477 0.177096 0
0 0.218036 0
0 0.217441 0
0 0.216495 0
0 0.215595 0
0 0.214618 0
0 0.213642 0
0 0.212634 0
0 0.210788 0
0 0.208179 0
0.00527962 0.205692 0
0.0396582 0.204135 0
0.073991 0.20264 0
0.108186 0.201526 0
0.1411 0.200946 0
0.167422 0.205982 0
0.17499 0.219532 0
0.169848 0.233524 0
0.183413 0.240238 0
0.215076 0.241566 0
0.254383 0.240131 0
0.294011 0.238544 0
0.333898 0.237034 0
0.373953 0.23563 0
0.414282 0.234241 0
0.454185 0.233356 0
0.493584 0.232319 0
0.532815 0.231418 0
0.567025 0.231312 0
0.593317 0.232471 0
0.631937 0.232319 0
0.675547 0.231754 0
0.724895 0.230152 0
0.777905 0.227924 0
0 0.246326 0
0 0.245914 0
0 0.245258 0
0 0.244709 0
0 0.244343 0
0 0.243702 0
0 0.242802 0
0 0.241321 0
0 0.239063 0
0.0124819 0.236698 0
0.0474708 0.235264 0
0.0816663 0.234104 0
0.116014 0.23267 0
0.148989 0.231861 0
0.180636 0.232761 0
0.201465 0.241428 0
0.202609 0.256138 0
0.199649 0.269215 0
0.215763 0.275059 0
0.247532 0.276112 0
0.285847 0.275013 0
0.324483 0.273732 0
0.36318 0.272633 0
0.402304 0.271977 0
0.440482 0.271458 0
0.478416 0.271107 0
0.516136 0.270878 0
0.55314 0.270863 0
0.583459 0.271931 0
0.61033 0.273808 0
0.650095 0.274281 0
0.690272 0.274662 0
0.730892 0.275044 0
0 0.274632 0
0 0.274449 0
0 0.274128 0
0 0.27396 0
0 0.273762 0
0 0.273411 0
0 0.272816 0
0 0.271672 0
0 0.269764 0
0.0205081 0.267613 0
0.0560769 0.266285 0
0.0898451 0.265217 0
0.124208 0.263951 0
0.157549 0.262974 0
0.190402 0.262547 0
0.218814 0.266453 0
0.233845 0.277913 0
0.230762 0.293065 0
0.230518 0.304631 0
0.248508 0.310033 0
0.280064 0.311345 0
0.318059 0.310826 0
0.356069 0.310277 0
0.393851 0.309743 0
0.431022 0.309636 0
0.467735 0.309895 0
0.504387 0.310338 0
0.540551 0.310994 0
0.574701 0.312291 0
0.60235 0.314076 0
0.6327 0.31606 0
0.671092 0.317494 0
0.709987 0.318807 0
0 0.303044 0
0 0.30309 0
0 0.303288 0
0 0.303243 0
0 0.303227 0
0 0.303136 0
0 0.302785 0
0 0.301961 0
0 0.300603 0
0.0296025 0.298695 0
0.0652323 0.297154 0
0.0988632 0.296208 0
0.132876 0.295216 0
0.166598 0.29427 0
0.19942 0.293919 0
0.231617 0.294789 0
0.255268 0.301762 0
0.264698 0.315068 0
0.259861 0.330343 0
0.262898 0.340948 0
0.28246 0.346288 0
0.314244 0.348196 0
0.351186 0.348241 0
0.388434 0.348211 0
0.424872 0.348501 0
0.460807 0.349157 0
0.496788 0.350301 0
0.532464 0.35169 0
0.566705 0.353353 0
0.597345 0.3552 0
0.624063 0.357641 0
0.657328 0.35996 0
0.694408 0.362081 0
0 0.331594 0
0 0.332113 0
0 0.332296 0
0 0.332494 0
0 0.332738 0
0 0.332906 0
0 0.332815 0
0 0.332311 0
0.00158694 0.331228 0
0.0392309 0.329503 0
0.0751507 0.328084 0
0.108873 0.32723 0
0.142412 0.326543 0
0.176623 0.326101 0
0.209689 0.325765 0
0.242496 0.325902 0
0.271824 0.329168 0
0.291203 0.338964 0
0.295766 0.353674 0
0.291264 0.368948 0
0.297475 0.378958 0
0.318212 0.384314 0
0.349416 0.386542 0
0.385916 0.387243 0
0.422004 0.388128 0
0.457603 0.389303 0
0.492973 0.390906 0
0.527489 0.392569 0
0.561166 0.394598 0
0.593027 0.396735 0
0.620844 0.399145 0
0.648692 0.401892 0
0.684276 0.404822 0
0 0.360342 0
0 0.361074 0
0 0.36144 0
0 0.361868 0
0 0.36231 0
0 0.362722 0
0 0.363134 0
0 0.362814 0
0.0124208 0.361852 0
0.0497902 0.360433 0
0.0860304 0.359243 0
0.120211 0.358663 0
0.153872 0.358663 0
0.187716 0.358312 0
0.221164 0.358144 0
0.253849 0.358557 0
0.286336 0.359869 0
0.311971 0.366155 0
0.327489 0.378378 0
0.328176 0.394217 0
0.324865 0.408835 0
0.333883 0.418387 0
0.355688 0.423957 0
0.386618 0.426734 0
0.422141 0.428428 0
0.457206 0.429953 0
0.491753 0.431601 0
0.525612 0.433509 0
0.558618 0.435737 0
0.590356 0.438025 0
0.619165 0.440711 0
0.646403 0.44358 0
0.677974 0.446555 0
0 0.38677 0
0 0.38909 0
0 0.390433 0
0 0.391348 0
0 0.392035 0
0 0.39292 0
0 0.393378 0
0 0.393454 0
0.0246433 0.392996 0
0.0618143 0.391974 0
0.0983139 0.391043 0
0.133257 0.390967 0
0.16672 0.391119 0
0.200458 0.391302 0
0.234211 0.39144 0
0.267063 0.39202 0
0.300175 0.392996 0
0.330617 0.397024 0
0.352911 0.40618 0
0.363882 0.420188 0
0.361959 0.43621 0
0.360693 0.450065 0
0.371893 0.459159 0
0.394537 0.464988 0
0.424598 0.468391 0
0.458503 0.470359 0
0.492546 0.472251 0
0.525856 0.474327 0
0.558312 0.476631 0
0.589776 0.479149 0
0.618875 0.481727 0
0.646159 0.484459 0
0.67538 0.487572 0
0 0.411185 0
0 0.414313 0
0 0.417365 0
0 0.420142 0
0 0.422156 0
0 0.423468 0
0 0.424292 0
0.00318914 0.42472 0
0.0383307 0.424704 0
0.0755016 0.424247 0
0.112581 0.423941 0
0.147616 0.423835 0
0.181216 0.424308 0
0.214939 0.424979 0
0.249042 0.42565 0
0.282338 0.426535 0
0.315282 0.428046 0
0.348028 0.430198 0
0.374777 0.436469 0
0.393439 0.447929 0
0.399924 0.46305 0
0.396826 0.47895 0
0.398184 0.49218 0
0.4112 0.500801 0
0.433631 0.506493 0
0.462486 0.510124 0
0.495247 0.512444 0
0.528145 0.514809 0
0.560174 0.517449 0
0.590875 0.519799 0
0.619776 0.522148 0
0.647349 0.524773 0
0.6757 0.527871 0
0 0.439384 0
0 0.44004 0
0 0.443259 0
0 0.446845 0
0 0.45037 0
0 0.453452 0
0 0.455634 0
0.0188602 0.456825 0
0.0536812 0.457252 0
0.0909895 0.457481 0
0.128099 0.457435 0
0.163729 0.457755 0
0.19765 0.458549 0
0.231159 0.459556 0
0.265217 0.460578 0
0.299092 0.461921 0
0.33193 0.463355 0
0.36495 0.464988 0
0.39498 0.468971 0
0.418387 0.477592 0
0.433158 0.490623 0
0.43592 0.506691 0
0.432914 0.522042 0
0.436057 0.534066 0
0.450248 0.54229 0
0.472389 0.548058 0
0.500404 0.552102 0
0.531899 0.554971 0
0.563134 0.557321 0
0.593301 0.559564 0
0.621912 0.561929 0
0.649775 0.56463 0
0.67834 0.567987 0
0 0.471351 0
0 0.472541 0
0 0.473503 0
0 0.474617 0
0 0.478035 0
0 0.481788 0
0.0100862 0.485527 0
0.0392004 0.48867 0
0.0723278 0.490639 0
0.108431 0.491341 0
0.145495 0.491585 0
0.181384 0.492103 0
0.215625 0.493111 0
0.248966 0.494408 0
0.283024 0.495918 0
0.316609 0.497139 0
0.349508 0.498589 0
0.382406 0.500282 0
0.414099 0.502861 0
0.440864 0.50901 0
0.461158 0.520027 0
0.471504 0.534249 0
0.471244 0.550027 0
0.469032 0.56466 0
0.474678 0.575647 0
0.489784 0.583947 0
0.511742 0.589624 0
0.538537 0.593515 0
0.56791 0.596155 0
0.597513 0.598291 0
0.626307 0.600992 0
0.654169 0.603571 0
0.68275 0.606897 0
0 0.504356 0
0 0.505669 0
0 0.506905 0
0 0.508431 0
0 0.510109 0
0.0105745 0.511711 0
0.0375525 0.515267 0
0.0659037 0.519142 0
0.0962387 0.522255 0
0.129686 0.524392 0
0.165118 0.525612 0
0.200397 0.526589 0
0.234775 0.527993 0
0.26807 0.529564 0
0.301518 0.530953 0
0.335042 0.53225 0
0.367926 0.5337 0
0.400763 0.535348 0
0.433188 0.537758 0
0.462409 0.542077 0
0.485863 0.550362 0
0.502083 0.5626 0
0.508141 0.577539 0
0.506432 0.593332 0
0.505959 0.607065 0
0.51342 0.617182 0
0.528801 0.624567 0
0.550378 0.629725 0
0.576104 0.633646 0
0.603937 0.636225 0
0.632105 0.638651 0
0.659968 0.64155 0
0.688594 0.645411 0
0 0.538231 0
0 0.539864 0
0 0.541466 0
0 0.543206 0
0 0.545083 0
0.0272221 0.547127 0
0.0593118 0.548898 0
0.0927138 0.550195 0
0.123262 0.553155 0
0.155612 0.555734 0
0.18909 0.557916 0
0.222721 0.560037 0
0.255726 0.562066 0
0.287968 0.563989 0
0.32076 0.565713 0
0.353979 0.567239 0
0.386847 0.56875 0
0.419944 0.570626 0.00697337
0.451896 0.572595 0.0155032
0.482567 0.575616 0.0175021
0.508598 0.581857 0.00109865
0.528832 0.591974 0
0.541527 0.605615 0
0.543893 0.620783 0
0.541665 0.635584 0
0.542763 0.647944 0
0.551965 0.657084 0
0.56791 0.663798 0
0.588647 0.66862 0
0.61268 0.672374 0
0.639307 0.675593 0
0.667185 0.679408 0
0.695048 0.682902 0
0 0.572747 0
0 0.574624 0
0 0.576471 0
0 0.578424 0
0.0131838 0.58053 0
0.0446937 0.582589 0
0.0767987 0.584329 0
0.110246 0.585733 0
0.145205 0.586755 0
