Luts/Cool_red_1.C0036.cube
TITLE "Generated by Resolve"
LUT_3D_SIZE 9
0 0 0
0 0 0
0.0226749 0 0
0.272038 0 0
0.459464 0 0
0.621271 0 0
0.829496 0 0
1 0 0
1 0 0
0 0 0
0 0 0
0 0 0
0.176165 0 0
0.399268 0 0
0.554925 0 0
0.766094 0 0
0.958373 0 0
1 0 0
0 0.0173342 0
0 0.00608835 0
0 0 0
0.0309758 0.00515755 0
0.258747 0 0
0.500648 0 0
0.700969 0 0
0.894896 0 0
1 0 0
0 0.132219 0
0 0.124285 0
0 0.113832 0
0.0826429 0.112093 0
0.161563 0.136385 0
0.341466 0.125841 0
0.532296 0.112551 0
0.755978 0.0934768 0
0.967468 0.0758526 0
0 0.246326 0
0 0.244343 0
0 0.239063 0
0.116014 0.23267 0
0.202609 0.256138 0
0.285847 0.275013 0
0.440482 0.271458 0
0.583459 0.271931 0
0.730892 0.275044 0
0 0.360342 0
0 0.36231 0
0.0124208 0.361852 0
0.153872 0.358663 0
0.286336 0.359869 0
0.324865 0.408835 0
0.422141 0.428428 0
0.558618 0.435737 0
0.677974 0.446555 0
0 0.471351 0
0 0.478035 0
0.0723278 0.490639 0
0.215625 0.493111 0
0.349508 0.498589 0
0.461158 0.520027 0
0.474678 0.575647 0
0.56791 0.596155 0
0.68275 0.606897 0
0 0.607645 0
0.0315404 0.615991 0
0.163531 0.622263 0
0.305241 0.626062 0.0123751
0.42884 0.636149 0.0391852
0.551583 0.646097 0.0641184
0.613825 0.688411 0
0.627985 0.732998 0
0.710826 0.755306 0
0 0.747616 0
0.107134 0.755962 0
0.238483 0.761593 0.0285039
0.383139 0.762478 0.0676127
0.510781 0.766934 0.113298
0.631205 0.772992 0.154711
0.724407 0.795193 0.106188
0.744488 0.846021 0
0.768353 0.884077 0
0 0 0.0532692
0 0 0.119631
0.00923171 0 0.134203
0.262654 0 0.0728313
0.462272 0 0.00694286
0.612634 0 0
0.821241 0 0
1 0 0
1 0 0
0 0 0
0 0 0
0 0 0.0216068
0.167636 0 0
0.413199 0 0
0.587884 0 0
0.761227 0 0
0.954269 0 0
1 0 0
0 0.0151064 0
0 0.0137484 0
0 0.00859083 0
0.0245365 0.00030518 0
0.323705 0 0
0.53875 0 0
0.694408 0 0
0.888273 0 0
1 0 0
0 0.144137 0
0 0.145342 0
0 0.134005 0
0.0566873 0.117311 0
0.157748 0.132555 0
0.367529 0.116503 0
0.608652 0.0910353 0
0.802518 0.0749981 0
0.981323 0.063447 0
0 0.267582 0
0 0.267979 0
0 0.259922 0
0.0777752 0.245747 0
0.213794 0.244984 0
0.284153 0.273335 0
0.452689 0.268162 0
0.618799 0.264591 0
0.796399 0.261585 0
0 0.383627 0
0 0.385183 0
0 0.38294 0
0.108232 0.375738 0
0.259266 0.371435 0
0.345892 0.40264 0
0.423102 0.430274 0
0.567315 0.436362 0
0.704097 0.445365 0
0 0.492149 0
0 0.504707 0
0.014725 0.512596 0
0.167773 0.513542 0
0.319554 0.514244 0.0244144
0.453849 0.521675 0.049424
0.488334 0.574563 0
0.56965 0.599863 0
0.693751 0.610391 0
0 0.629267 0
0 0.635599 0.00794995
0.118959 0.640787 0.0471046
0.247196 0.652003 0.0510262
0.395056 0.654063 0.0842451
0.528847 0.658885 0.124651
0.625757 0.685176 0.0530404
0.634928 0.737652 0
0.711955 0.759243 0
0 0.768688 0.0250858
0.0607156 0.775021 0.0607004
0.193622 0.779782 0.100053
0.340658 0.779812 0.137362
0.482383 0.781064 0.170275
0.605875 0.787457 0.196277
0.716228 0.798413 0.205356
0.76347 0.840665 0.0838636
0.774823 0.881163 0.0721599
0 0 0.236042
0 0 0.314229
0 0 0.363012
0.230991 0 0.310353
0.444846 0 0.237095
0.603296 0 0.165591
0.811994 0 0.134066
1 0 0.109194
1 0 0.0905623
0 0 0.148302
0 0 0.177584
0 0 0.249012
0.151736 0 0.255879
0.404456 0 0.190158
0.59881 0 0.127916
0.752773 0 0.0846418
0.945861 0 0.0623941
1 0 0.0455787
0 0.00636301 0.107103
0 0.00646983 0.105898
0 0.0040589 0.103517
0.0296178 0 0.151354
0.317525 0 0.105501
0.555001 0 0.0578012
0.714549 0 0.0282444
0.882673 0 0.00952163
1 0 0
0 0.138445 0.0803388
0 0.143984 0.0801709
0 0.143862 0.0745251
0 0.1355 0.0590219
0.150896 0.127077 0.0449073
0.44712 0.0889754 0
0.656291 0.0674449 0
0.795087 0.0647746 0
0.973922 0.0535744 0
0 0.271717 0.0538491
0 0.281147 0.0471199
0 0.282902 0.0341192
0.00479133 0.266819 0.0325322
0.188174 0.248493 0.0689097
0.279393 0.269337 0
0.471962 0.26041 0
0.693858 0.245579 0
0.876646 0.239292 0
0 0.398611 0.0337072
0 0.407507 0.0251621
0 0.40882 0.0180056
0.0360418 0.398795 0.0300145
0.220172 0.385992 0.0635691
0.35877 0.392111 0.0663767
0.422065 0.430198 0
0.576928 0.434836 0
0.728435 0.440742 0
0 0.512306 0.0483101
0 0.532967 0.0363622
0 0.538521 0.0440223
0.100877 0.537575 0.0654459
0.274876 0.53286 0.0928664
0.426612 0.532799 0.13669
0.510918 0.567315 0.0395361
0.569284 0.601434 0.0175326
0.698848 0.610529 0.0266728
0 0.651911 0.0763256
0 0.658808 0.0966659
0.0431373 0.669337 0.108797
0.183215 0.675853 0.123644
0.347097 0.673823 0.148257
0.497124 0.673686 0.187396
0.62005 0.683253 0.201785
0.649927 0.733852 0.0743267
0.711284 0.76141 0.0721294
0 0.791867 0.12015
0 0.797589 0.144701
0.13933 0.799817 0.176425
0.284871 0.800519 0.208515
0.423789 0.805325 0.210971
0.569406 0.803967 0.245319
0.692561 0.80824 0.281834
0.775906 0.83473 0.204761
0.782238 0.883131 0.127138
0 0 0.410071
0 0 0.486107
0 0 0.546044
0.183124 0 0.531701
0.381308 0 0.449302
0.591516 0 0.408148
0.800275 0 0.376516
0.990326 0 0.351843
1 0 0.333257
0 0 0.332113
0 0 0.378241
0 0 0.461234
0.11664 0 0.510643
0.36585 0 0.45716
0.575204 0 0.387808
0.741863 0 0.327626
0.934752 0 0.305257
1 0 0.288579
0 0 0.26569
0 0 0.289708
0 0 0.326009
0.0148775 0 0.414237
0.296941 0 0.413977
0.543114 0 0.348974
0.731472 0 0.290562
0.871794 0 0.252399
1 0 0.2365
0 0.126253 0.232013
0 0.13315 0.240757
0 0.134737 0.242283
0 0.12987 0.237644
0.153643 0.109346 0.28954
0.439643 0.0677195 0.248478
0.673854 0.042237 0.20383
0.836545 0.0361791 0.177478
0.965652 0.0396277 0.166232
0 0.262684 0.209918
0 0.273564 0.214878
0 0.280293 0.214878
0 0.277928 0.205509
0.110048 0.268162 0.187655
0.270649 0.262303 0.182971
0.553017 0.232227 0.0726635
0.757259 0.217304 0.0662852
0.897856 0.221363 0.0825971
0 0.396551 0.194781
0 0.410407 0.195087
0 0.421775 0.188983
0 0.42475 0.172702
0.137926 0.410361 0.170352
0.328267 0.397498 0.21181
0.417136 0.426093 0.15349
0.589288 0.428504 0.114595
0.783841 0.425193 0.0652018
0 0.520241 0.198413
0 0.548562 0.192691
0 0.563058 0.186831
0.00163272 0.567346 0.177172
0.191821 0.559335 0.190097
0.381521 0.548714 0.226444
0.519402 0.555398 0.246265
0.565545 0.599573 0.158923
0.703288 0.607431 0.153567
0 0.667689 0.221622
0 0.679057 0.230488
0 0.700618 0.218952
0.0937972 0.704219 0.218891
0.267277 0.699718 0.237354
0.44509 0.692348 0.264027
0.587823 0.692912 0.306386
0.673533 0.721721 0.226932
0.707973 0.760235 0.192142
0 0.811704 0.256687
0 0.820523 0.267414
0.0583505 0.82414 0.280827
0.191775 0.831632 0.278859
0.347097 0.829877 0.294514
0.514092 0.823072 0.316289
0.653605 0.822354 0.352895
0.765301 0.830289 0.371191
0.800671 0.874205 0.25008
0 0 0.566613
0 0 0.643565
0 0 0.715114
0.143359 0 0.734737
0.362997 0 0.700984
0.578882 0 0.665995
0.787793 0 0.634272
0.978058 0 0.609689
1 0 0.591211
0 0 0.47277
0 0 0.539055
0 0 0.611063
0.0727092 0 0.66685
0.300252 0 0.652079
0.518227 0 0.615213
0.730449 0 0.586221
0.923308 0 0.563577
1 0 0.546899
0 0 0.43447
0 0 0.47567
0 0 0.527703
0.00230411 0 0.624002
0.256565 0 0.670741
0.500465 0 0.622797
0.690364 0 0.55111
0.86009 0 0.510582
1 0 0.49485
0 0.114672 0.381613
0 0.122621 0.402808
0 0.127001 0.429801
0 0.121996 0.471626
0.138949 0.0934768 0.565164
0.416541 0.0495155 0.573251
0.657023 0.0235447 0.513375
0.835554 0.0157778 0.462913
0.954589 0.0254063 0.424933
0 0.249805 0.359014
0 0.260533 0.371786
0 0.26804 0.381888
0 0.267903 0.382803
0.0941482 0.261875 0.377539
0.265415 0.247852 0.428458
0.543465 0.210819 0.407309
0.773404 0.191821 0.373465
0.93846 0.192706 0.354208
0 0.383825 0.344945
0 0.400763 0.356512
0 0.413184 0.363058
0 0.4215 0.363684
0.0693065 0.422446 0.357443
0.245274 0.419455 0.346517
0.411505 0.418692 0.354452
0.658534 0.404517 0.25977
0.866224 0.392981 0.250614
0 0.518395 0.349859
0 0.543679 0.360555
0 0.564935 0.366262
0 0.57969 0.362264
0.0855879 0.586053 0.347631
0.291417 0.575082 0.342
0.480842 0.564248 0.381918
0.562692 0.59292 0.34081
0.705455 0.601007 0.315892
0 0.670771 0.379919
0 0.685496 0.390433
0 0.712245 0.389075
0.000350958 0.72694 0.378347
0.158404 0.730282 0.361791
0.354498 0.719234 0.368307
0.536416 0.70869 0.402472
0.667002 0.711971 0.440543
0.705486 0.754574 0.349584
0 0.819394 0.416983
0 0.832288 0.425376
0 0.841535 0.430198
0.0854505 0.860105 0.409461
0.246235 0.859007 0.399588
0.425589 0.84918 0.411063
0.593912 0.840772 0.43592
0.726085 0.840314 0.474571
0.818998 0.858839 0.437293
0 0 0.783444
0 0 0.861509
0 0 0.937041
0.126833 0 0.977874
0.350301 0 0.960159
0.566735 0 0.925017
0.775601 0 0.8934
0.966155 0 0.868879
1 0 0.850507
0 0 0.665736
0 0 0.725612
0 0 0.809339
0.0567636 0 0.889509
0.285908 0 0.905852
0.506828 0 0.875166
0.719097 0 0.84596
0.912169 0 0.823362
1 0 0.806607
0 0 0.581537
0 0 0.612879
0 0 0.667399
0 0 0.762753
0.214633 0 0.833021
0.441047 0 0.820768
0.654978 0 0.792462
0.849195 0 0.770504
1 0 0.75465
0 0.102708 0.510079
0 0.113756 0.565164
0 0.117433 0.611444
0 0.110048 0.667857
0.128435 0.0835889 0.769696
0.376272 0.0442359 0.821134
0.612604 0.0175021 0.78201
0.794369 0.00962844 0.725505
0.944549 0.0108492 0.68545
0 0.23505 0.486686
0 0.249363 0.518029
0 0.257343 0.539101
0 0.260136 0.565911
0.0673991 0.254643 0.610544
0.254414 0.232013 0.702144
0.522103 0.193912 0.733074
0.753445 0.176303 0.690471
0.932723 0.17496 0.651362
0 0.368277 0.476081
0 0.388571 0.502708
0 0.401282 0.518013
0 0.410346 0.530282
0.0718853 0.413931 0.536187
0.235279 0.41416 0.537911
0.39826 0.41059 0.584955
0.650019 0.384222 0.597894
0.873899 0.369345 0.573297
0 0.514778 0.492195
0 0.529473 0.504265
0 0.556878 0.525887
0 0.572061 0.535164
0.0710002 0.582208 0.538048
0.231724 0.58468 0.533776
0.397452 0.585321 0.528008
0.569436 0.580758 0.547799
0.749706 0.582803 0.469505
0 0.668254 0.528038
0 0.683497 0.540688
0 0.7037 0.552193
0 0.725719 0.55642
0.103166 0.738277 0.550942
0.252781 0.742916 0.53576
0.438315 0.735561 0.524865
0.617304 0.724956 0.554635
0.718898 0.740795 0.540566
0 0.818463 0.570932
0 0.832624 0.581582
0 0.844129 0.588754
0.0391089 0.866255 0.583337
0.16022 0.877058 0.568994
0.313207 0.878264 0.546136
0.497704 0.867323 0.544778
0.664622 0.857145 0.575006
0.792432 0.857435 0.614252
0 0 0.993866
0 0 1
0 0 1
0.110994 0 1
0.33753 0 1
0.555245 0 1
0.764462 0 1
0.955245 0 1
1 0 1
0 0 0.869444
0 0 0.935683
0 0 1
0.0440223 0 1
0.272175 0 1
0.49633 0 1
0.708751 0 1
0.901854 0 1
1 0 1
0 0 0.771359
0 0 0.811582
0 0 0.877104
0 0 0.975158
0.201541 0 1
0.430594 0 1
0.644953 0 1
0.839399 0 1
1 0 1
0 0.0991836 0.684352
0 0.105531 0.715267
0 0.107713 0.748608
0 0.101213 0.80473
0.122683 0.0793622 0.906493
0.339208 0.0473793 0.978607
0.559121 0.0223545 0.972656
0.755627 0.00679026 0.952071
0.935561 0 0.938003
0 0.228992 0.623468
0 0.238132 0.638132
0 0.248692 0.684596
0 0.251972 0.739223
0.0671397 0.244526 0.79881
0.248417 0.223178 0.900465
0.487053 0.19089 0.966003
0.711589 0.173571 0.947463
0.899001 0.169574 0.915206
0 0.3635 0.610849
0 0.373602 0.61883
0 0.391989 0.657557
0 0.402106 0.682124
0.0666056 0.40853 0.713329
0.212238 0.409506 0.763531
0.391165 0.397116 0.85214
0.631922 0.36878 0.912779
0.852445 0.355657 0.884978
0 0.510155 0.627359
0 0.524742 0.639353
0 0.544732 0.662196
0 0.562264 0.6851
0.087068 0.572549 0.699245
0.235767 0.577279 0.707027
0.390585 0.579889 0.712139
0.533776 0.582101 0.746975
0.744213 0.562325 0.793133
0 0.665232 0.665782
0 0.680705 0.678737
0 0.694102 0.689204
0 0.717723 0.708583
0.111162 0.730007 0.715923
0.245335 0.737285 0.717144
0.395407 0.739345 0.713817
0.54287 0.741054 0.711131
0.692531 0.740856 0.713298
0 0.815763 0.710811
0 0.829786 0.722225
0 0.84126 0.730938
0.0550698 0.856001 0.737179
0.150072 0.872587 0.738674
0.273121 0.881041 0.731594
0.410437 0.884642 0.719676
0.563928 0.882429 0.708156
0.729366 0.873991 0.721279
0 0 1
0 0 1
0 0 1
0.0986496 0 1
0.325124 0 1
0.546059 0 1
0.755642 0 1
0.946899 0 1
1 0 1
0 0 1
0 0 1
0 0 1
0.0345617 0 1
0.260014 0 1
0.487846 0 1
0.700786 0 1
0.893889 0 1
1 0 1
0 0 0.946487
0 0 0.995621
0 0 1
0 0 1
0.192065 0 1
0.420081 0 1
0.637263 0 1
0.831647 0 1
1 0 1
0 0.0960403 0.855329
0 0.100938 0.887877
0 0.101549 0.92578
0 0.0930037 0.994186
0.117327 0.0699016 1
0.329122 0.0381933 1
0.551278 0.0106661 1
0.748943 0 1
0.929061 0 1
0 0.228367 0.772824
0 0.2374 0.796338
0 0.243809 0.825833
0 0.244602 0.861234
0.0795453 0.2383 0.916381
0.24799 0.221653 1
0.458183 0.197055 1
0.665675 0.182116 1
0.85156 0.17673 1
0 0.361975 0.739559
0 0.372946 0.751278
0 0.383978 0.765896
0 0.397208 0.814115
0.0663767 0.404334 0.871839
0.215305 0.403159 0.935378
0.390372 0.390738 1
0.60592 0.368078 1
0.816693 0.354955 1
0 0.508202 0.750576
0 0.523339 0.763287
0 0.537133 0.774533
0 0.555764 0.811215
0.0996262 0.566842 0.837049
0.2327 0.573709 0.867979
0.370184 0.577066 0.914473
0.525322 0.571801 0.985901
0.72932 0.549874 1
0 0.662791 0.788846
0 0.678279 0.801724
0 0.691554 0.812222
0.025391 0.707256 0.830259
0.130526 0.721813 0.850813
0.260243 0.729046 0.862745
0.399527 0.732937 0.869627
0.537102 0.736324 0.876005
0.663279 0.740276 0.904356
0 0.813565 0.83505
0 0.82742 0.846403
0 0.838819 0.854887
0.0825818 0.845975 0.85864
0.162722 0.865125 0.874937
0.282795 0.873198 0.878996
0.409537 0.878233 0.879713
0.544289 0.880598 0.877989
0.676081 0.883207 0.876875
0 0 1
0 0 1
0 0 1
0.0890211 0 1
0.314626 0 1
0.538231 0 1
0.748852 0 1
0.940475 0 1
1 0 1
0 0 1
0 0 1
0 0 1
0.0274968 0 1
0.250919 0 1
0.479179 0 1
0.694667 0 1
0.888106 0 1
1 0 1
0 0 1
0 0 1
0 0 1
0 0 1
0.185489 0 1
0.411185 0 1
0.63122 0 1
0.826185 0 1
1 0 1
0 0.0930648 1
0 0.0968032 1
0 0.0962387 1
0 0.0862593 1
0.113359 0.0625162 1
0.32221 0.03122 1
0.54377 0.00244144 1
0.744244 0 1
0.925032 0 1
0 0.228489 0.9187
0 0.236576 0.948104
0 0.241825 0.98204
0 0.241001 1
0.0732891 0.232746 1
0.246021 0.215335 1
0.453376 0.19173 1
0.661402 0.174853 1
0.848829 0.168948 1
0 0.362676 0.865125
0 0.374395 0.882536
0 0.385992 0.90515
0 0.394919 0.936629
0.0852674 0.400275 0.97792
0.228305 0.399786 1
0.394583 0.390463 1
0.584512 0.376257 1
0.775509 0.366125 1
0 0.508827 0.865492
0 0.524498 0.880018
0 0.538781 0.893919
0.00759899 0.549767 0.906996
0.106844 0.564538 0.961639
0.233097 0.571237 1
0.37293 0.57229 1
0.526406 0.565698 1
0.71281 0.548455 1
0 0.662577 0.900938
0 0.678096 0.91397
0 0.691371 0.924514
0.0530709 0.700771 0.930663
0.146471 0.71696 0.966339
0.270939 0.724453 0.988251
0.395804 0.73019 1
0.518639 0.734127 1
0.6533 0.732479 1
0 0.812039 0.946227
0 0.825772 0.957259
0 0.836927 0.965621
0.0881208 0.843961 0.96907
0.185275 0.857481 0.987778
0.300237 0.865812 1
0.422232 0.871092 1
0.547845 0.875334 1
0.670588 0.879347 1
