Luts/Cool_red_1.C0036.cube
TITLE "Generated by Resolve"
LUT_3D_SIZE 5
0 0 0
0.0226749 0 0
0.459464 0 0
0.829496 0 0
1 0 0
0 0.0173342 0
0 0 0
0.258747 0 0
0.700969 0 0
1 0 0
0 0.246326 0
0 0.239063 0
0.202609 0.256138 0
0.440482 0.271458 0
0.730892 0.275044 0
0 0.471351 0
0.0723278 0.490639 0
0.349508 0.498589 0
0.474678 0.575647 0
0.68275 0.606897 0
0 0.747616 0
0.238483 0.761593 0.0285039
0.510781 0.766934 0.113298
0.724407 0.795193 0.106188
0.768353 0.884077 0
0 0 0.236042
0 0 0.363012
0.444846 0 0.237095
0.811994 0 0.134066
1 0 0.0905623
0 0.00636301 0.107103
0 0.0040589 0.103517
0.317525 0 0.105501
0.714549 0 0.0282444
1 0 0
0 0.271717 0.0538491
0 0.282902 0.0341192
0.188174 0.248493 0.0689097
0.471962 0.26041 0
0.876646 0.239292 0
0 0.512306 0.0483101
0 0.538521 0.0440223
0.274876 0.53286 0.0928664
0.510918 0.567315 0.0395361
0.698848 0.610529 0.0266728
0 0.791867 0.12015
0.13933 0.799817 0.176425
0.423789 0.805325 0.210971
0.692561 0.80824 0.281834
0.782238 0.883131 0.127138
0 0 0.566613
0 0 0.715114
0.362997 0 0.700984
0.787793 0 0.634272
1 0 0.591211
0 0 0.43447
0 0 0.527703
0.256565 0 0.670741
0.690364 0 0.55111
1 0 0.49485
0 0.249805 0.359014
0 0.26804 0.381888
0.0941482 0.261875 0.377539
0.543465 0.210819 0.407309
0.93846 0.192706 0.354208
0 0.518395 0.349859
0 0.564935 0.366262
0.0855879 0.586053 0.347631
0.480842 0.564248 0.381918
0.705455 0.601007 0.315892
0 0.819394 0.416983
0 0.841535 0.430198
0.246235 0.859007 0.399588
0.593912 0.840772 0.43592
0.818998 0.858839 0.437293
0 0 0.993866
0 0 1
0.33753 0 1
0.764462 0 1
1 0 1
0 0 0.771359
0 0 0.877104
0.201541 0 1
0.644953 0 1
1 0 1
0 0.228992 0.623468
0 0.248692 0.684596
0.0671397 0.244526 0.79881
0.487053 0.19089 0.966003
0.899001 0.169574 0.915206
0 0.510155 0.627359
0 0.544732 0.662196
0.087068 0.572549 0.699245
0.390585 0.579889 0.712139
0.744213 0.562325 0.793133
0 0.815763 0.710811
0 0.84126 0.730938
0.150072 0.872587 0.738674
0.410437 0.884642 0.719676
0.729366 0.873991 0.721279
0 0 1
0 0 1
0.314626 0 1
0.748852 0 1
1 0 1
0 0 1
0 0 1
0.185489 0 1
0.63122 0 1
1 0 1
0 0.228489 0.9187
0 0.241825 0.98204
0.0732891 0.232746 1
0.453376 0.19173 1
0.848829 0.168948 1
0 0.508827 0.865492
0 0.538781 0.893919
0.106844 0.564538 0.961639
0.37293 0.57229 1
0.71281 0.548455 1
0 0.812039 0.946227
0 0.836927 0.965621
0.185275 0.857481 0.987778
0.422232 0.871092 1
0.670588 0.879347 1
